X: 21434
T: Kevin Broderick's
R: polka
M: 2/4
K: Adorian
AB|:c2 B>A|GE DE|G>G GE|G2 AB|
cB cd|ed cB|A2 AB|1 A2 AB:|2 A2 Bd||
e2 Bd|e2 A>B|cd BA|G2 B/c/d|
e2 B/c/d|e2 e>f|ge fg|e2 e/f/g|
a2 ef|g2 f>e|dB AB|G2 AB|
cB cd|ed cB|A2 AB|A2 AB||

